!!!COM: Palestrina, Giovanni Perluigi da
!!!OPR: Missa O sacrum convivium
!!!OMD: Kyrie
!!!OTL: Christe
**kern	**kern	**kern	**kern
*Itenor	*Itenor	*Icalto	*Icant
!Tenor 2	!Tenor 1	!Altus	!Cantus
*clefGv2	*clefGv2	*clefG2	*clefG2
*k[b-]	*k[b-]	*k[b-]	*k[b-]
*F:ion	*F:ion	*F:ion	*F:ion
*M4/2	*M4/2	*M4/2	*M4/2
=24	=24	=24	=24
1r	0r	0f	0r
[1B-	.	.	.
=25	=25	=25	=25
1B-]	0r	1g	0r
1c	.	[1a	.
=26	=26	=26	=26
1d	0r	2a]	0r
.	.	2f	.
2B-	.	2.g	.
[2c	.	.	.
.	.	4f	.
=27	=27	=27	=27
4c]	1r	4e	0r
4B-	.	4d	.
4A	.	2e	.
4G	.	.	.
2A	[1f	2c	.
[2B-	.	[2d	.
=28	=28	=28	=28
2B-]	1f]	4d]	0b-
.	.	4e	.
2A	.	2.f	.
1G	1g	.	.
.	.	4e	.
.	.	4e	.
.	.	4d	.
=29	=29	=29	=29
1F	1a	1f	1cc
1B-	2f	1r	1dd
.	[2g	.	.
=30	=30	=30	=30
2G	4g]	0r	2b-
.	4f	.	.
1A	4e	.	2.cc
.	4d	.	.
.	2e	.	.
.	.	.	4b-
2F	[2f	.	4a
.	.	.	4g
=31	=31	=31	=31
1F	4f]	0f	4a
.	4e	.	4b-
.	4d	.	1cc
.	4c	.	.
2r	1d	.	.
[2f	.	.	2b
=32	=32	=32	=32
2f]	1c	1g	1cc
2e	.	.	.
2.f	1r	1a	2r
.	.	.	[2ff
4e	.	.	.
=33	=33	=33	=33
2d	1r	2f	2ff]
2c	.	2.g	2ee
2B	1g	.	2dd
.	.	4f	.
2c	.	4e	[2cc
.	.	4d	.
=34	=34	=34	=34
2A	1a	2e	4cc]
.	.	.	4b-
1d	.	1f	4a
.	.	.	4g
.	2d	.	1a
2c	2e	2e	.
=35	=35	=35	=35
2B-	2f	2d	1b-
2G	2g	2.e	.
2.A	1c	.	1a
.	.	4c	.
.	.	[2f	.
4B-	.	.	.
=36	=36	=36	=36
1c	2r	2f]	1g
.	2g	2e	.
1F	2.a	2.f	[1cc
.	4g	4g	.
=37	=37	=37	=37
1r	2f	4a	1cc]
.	.	4b-	.
.	2e	1cc	.
1f	1d	.	1dd
.	.	2b	.
=38	=38	=38	=38
1g	1c	1cc	1ee
1a	1f	1r	2cc
.	.	.	[2dd
=39	=39	=39	=39
2f	2d	0r	4dd]
.	.	.	4cc
2.g	2.e-	.	4b-
.	.	.	4a
.	.	.	2b-
4f	4d	.	.
4e	4c	.	[2cc
4d	4B-	.	.
=40	=40	=40	=40
2e	2c	1r	4cc]
.	.	.	4b-
2.f	2.d	.	4a
.	.	.	4g
.	.	[1f	2a
4e	4c	.	.
4d	4B-	.	[2dd
4c	4A	.	.
=41	=41	=41	=41
2d	2B-	1f]	2dd]
1f	2d	.	2b-
.	1c	1g	[1cc
2e	.	.	.
=42	=42	=42	=42
2.f	1F	1a	1cc]
4e	.	.	.
4d	[1B-	1f	[1dd
4c	.	.	.
4B-	.	.	.
4A	.	.	.
=43	=43	=43	=43
1G	1B-]	2.g	1dd]
.	.	4f	.
2r	1c	4e	1cc
.	.	4d	.
[2g	.	2e	.
=44	=44	=44	=44
2g]	1d	1d	2b-
1f	.	.	2a
.	2B-	1r	1g
4e	[2c	.	.
4d	.	.	.
=45	=45	=45	=45
2e	4c]	1r	2.cc
.	4B-	.	.
2.f	4A	.	.
.	4G	.	4b-
.	2A	[1f	2cc
4e	.	.	.
4d	[2B-	.	[2dd
4c	.	.	.
=46	=46	=46	=46
2B-	2B-]	1f]	2dd]
2c	2A	.	1cc
1d	1G	1g	.
.	.	.	2b
=47	=47	=47	=47
1f	2F	1a	[0cc
.	1f	.	.
2a	.	2f	.
2g	2e	2g	.
=48	=48	=48	=48
1.f	2f	0a	1cc_
.	2.F	.	.
.	.	.	1cc_
.	4G	.	.
2f	4A	.	.
.	4B-	.	.
=49	=49	=49	=49
0e	0c	0g	0cc]
==	==	==	==
*-	*-	*-	*-
!!!CDT: 1525/^1526/-1594/2/2
!!!OCY: Italia
!!!AGN: Mass (Parody)
!!!AST: renaissance, vocal
!!!ASW: Motet (Morales)
!!!PWK: Masses, Book 8
!!!RNB: Cadence finals: C
!!!YOR: Le Opere Complete, v. 24, p. 227
!!!YOO: Rome, Italy: Fratelli Scalera
!!!END: 1992//
!!!EED: John Miller
!!!YEC: Copyright 2000, John Miller
!!!YEN: United States of America
!!!YEM: Rights to all derivative electronic formats reserved.
!!!YEM: Refer to licensing agreement for further details.
!!!YEM: This file must be accompanied by the licensing agreement.
!!!YEM: A copy of the licensing agreement may be found at http://www.music-cog.ohio-state.edu/HumdrumDatabases/Palestrina/license.txt
!!!EMD: converted to Humdrum by Bret Aarden
